X: 19
T: Hommage \`a Gilles Laprise 0
C: Philippe Bruneau
B: Portland Collection v.3 p.93
S: http://archive.folx.org/tune/reel/hommage-gilles-laprise-2331 2015-7-14
S: https://www.youtube.com/watch?v=Ni3x-uwAumo [Montréal flash mob 2010-7-21]
Z: 2017 John Chambers <jc:trillian.mit.edu>
N: Phillippe says this was originally in C. This may have been the key of the accordion he was playing at the time.
M: 2/4
L: 1/16
%P: Basic version:
K: D
|:\
"D"a4 "A7"gfeg | "D"fefg afdf | "A7"edef gecA |\
[1,3 "D"defg agfg :|[2,4 "D"df"A"ec "D"d4 :|
|:\
"D"Afed "G"B4 | Bgfe "D(A7)"[a4A4] | "D"Afed "A7"cAce |\
[1,3 ageg "D"fafd :|[2,4 "A7"agec "D"d4 :|

%%sep 1 1 500

